azure-docs/logo_cyclecloud.svg

<svg xmlns="http://www.w3.org/2000/svg" viewBox="0 0 64 64"><path d="M57.9 32.4c.6-1.6 1-3.4 1-5.2 0-7.8-6.3-14.1-14.1-14.1-2.2 0-4.2.5-6 1.4C35.7 10.5 31 8 25.6 8 16.4 8 8.9 15.4 8.9 24.6c0 .7.1 1.5.2 2.2-2.2.9-4.1 2.2-5.6 4 1.3 1.1 3.1 1.8 4.9 1.8 6.8 0 15.7-5.6 20.4-8.9l-2.2-2.5L36.8 19l-3.3 9.8-2.2-2.4c-2.1 1.7-13.6 10.2-22.9 10.2-2.9 0-5.3-.8-7.2-2.4C.5 35.8.1 37.6 0 39.5 1.8 41.2 4.5 42 8 42c8.8 0 22.4-5.5 34-13.6l-2-2.2 10.2-1.7-3.8 9.7-2.2-2.6c-12 9.2-25.7 14.8-35.6 14.8-3.1 0-5.7-.5-7.8-1.6.7 1.9 2.5 4.5 3.2 5.1 1.4 1 4.3 1.8 8.4 1.8 7.8 0 18.6-3.2 28.2-8.6l-1.9-2.5L49 39.3l-4 9.6-2.1-2.6C37.3 49.7 31 52.5 25 54.1h27.5C58.8 54.1 64 49 64 42.6c0-4.4-2.5-8.3-6.1-10.2z" fill="#59b4d9"/></svg>

<?xml version="1.0" encoding="utf-8"?>
<!-- Generator: Adobe Illustrator 22.1.0, SVG Export Plug-In . SVG Version: 6.00 Build 0)  -->
<svg version="1.1" id="Layer_1" xmlns="http://www.w3.org/2000/svg" xmlns:xlink="http://www.w3.org/1999/xlink" x="0px" y="0px"
	 viewBox="0 0 64 64" style="enable-background:new 0 0 64 64;" xml:space="preserve">
<style type="text/css">
	.st0{fill:#59B4D9;}
</style>
<path class="st0" d="M57.9,32.4c0.6-1.6,1-3.4,1-5.2c0-7.8-6.3-14.1-14.1-14.1c-2.2,0-4.2,0.5-6,1.4C35.7,10.5,31,8,25.6,8
	C16.4,8,8.9,15.4,8.9,24.6c0,0.7,0.1,1.5,0.2,2.2C6.9,27.7,5,29,3.5,30.8c1.3,1.1,3.1,1.8,4.9,1.8c6.8,0,15.7-5.6,20.4-8.9l-2.2-2.5
	l10.2-2.2l-3.3,9.8l-2.2-2.4c-2.1,1.7-13.6,10.2-22.9,10.2c-2.9,0-5.3-0.8-7.2-2.4c-0.7,1.6-1.1,3.4-1.2,5.3c1.8,1.7,4.5,2.5,8,2.5
	c8.8,0,22.4-5.5,34-13.6L40,26.2l10.2-1.7l-3.8,9.7l-2.2-2.6C32.2,40.8,18.5,46.4,8.6,46.4c-3.1,0-5.7-0.5-7.8-1.6
	c0.7,1.9,2.5,4.5,3.2,5.1c1.4,1,4.3,1.8,8.4,1.8c0,0,0,0,0,0c7.8,0,18.6-3.2,28.2-8.6l-1.9-2.5l10.3-1.3L45,48.9l-2.1-2.6
	C37.3,49.7,31,52.5,25,54.1h27.5C58.8,54.1,64,49,64,42.6C64,38.2,61.5,34.3,57.9,32.4z"/>
</svg>
